X:2003
T:Flatbush
O:england
M:3/4
L:1/8
R:Waltz
K:EMin
B3e BA|G2E2 G>A|B3e (3BAG|A6|G>A B>c d>B|A>E A2 B>A|\
G3A =F>G|E6::g3f e2|f2B2B2|e2 d3c|B6|c>B A>c B>A\
|1B2e2 e>f|g3e a>g|f6:|2B2E2 E>F|G3A =F>G|E6|]
